;FLAVOR:Marlin
;TIME:5007
;Filament used: 3.44272m
;Layer height: 0.2
;MINX:56.038
;MINY:92.045
;MINZ:0.2
;MAXX:171.252
;MAXY:141.388
;MAXZ:12
;Generated with Cura_SteamEngine main
M140 S50
M105
M190 S50
M104 S200
M105
M109 S200
M82 ;absolute extrusion mode
; Ender 3 Custom Start G-code
G92 E0 ; Reset Extruder
G28 ; Home all axes
G1 Z2.0 F3000 ; Move Z Axis up little to prevent scratching of Heat Bed
G1 X0.1 Y20 Z0.3 F5000.0 ; Move to start position
G1 X0.1 Y200.0 Z0.3 F1500.0 E15 ; Draw the first line
G1 X0.4 Y200.0 Z0.3 F5000.0 ; Move to side a little
G1 X0.4 Y20 Z0.3 F1500.0 E30 ; Draw the second line
G92 E0 ; Reset Extruder
G1 Z2.0 F3000 ; Move Z Axis up little to prevent scratching of Heat Bed
G1 X5 Y20 Z0.3 F5000.0 ; Move over to prevent blob squish
G92 E0
G92 E0
G1 F2700 E-5
;LAYER_COUNT:60
;LAYER:0
M107
;MESH:Nasadka p1.3mf
G0 F6000 X81.544 Y121.569 Z0.2
;TYPE:WALL-OUTER
G1 F2700 E0
G1 F1200 X80.856 Y121.68 E0.02318
G1 X80.157 Y121.701 E0.04644
G1 X79.478 Y121.634 E0.06913
G1 X78.817 Y121.483 E0.09168
G1 X78.189 Y121.249 E0.11397
G1 X77.56 Y120.921 E0.13757
G1 X77 Y120.529 E0.1603
G1 X76.499 Y120.073 E0.18283
G1 X76.051 Y119.544 E0.20589
G1 X75.675 Y118.964 E0.22888
G1 X75.389 Y118.363 E0.25102
G1 X75.168 Y117.698 E0.27433
G1 X75.042 Y117.05 E0.29628
G1 X74.997 Y116.342 E0.31988
G1 X75.042 Y115.659 E0.34264
G1 X75.169 Y115.005 E0.3648
G1 X75.393 Y114.336 E0.38827
G1 X75.685 Y113.729 E0.41067
G1 X76.066 Y113.144 E0.43389
G1 X76.499 Y112.635 E0.45612
G1 X77.006 Y112.174 E0.47891
G1 X77.568 Y111.782 E0.5017
G1 X78.193 Y111.458 E0.52511
G1 X78.831 Y111.221 E0.54775
G1 X79.503 Y111.07 E0.57066
G1 X80.164 Y111.007 E0.59274
G1 X80.873 Y111.03 E0.61634
G1 X81.542 Y111.138 E0.63888
G1 X82.196 Y111.333 E0.66157
G1 X82.832 Y111.615 E0.68471
G1 X83.417 Y111.972 E0.70751
G1 X83.951 Y112.401 E0.73029
G1 X84.428 Y112.895 E0.75313
G1 X84.837 Y113.445 E0.77593
G1 X85.168 Y114.032 E0.79834
G1 X85.426 Y114.671 E0.82126
G1 X85.601 Y115.343 E0.84436
G1 X85.687 Y116.006 E0.86659
G1 X85.686 Y116.709 E0.88998
G1 X85.599 Y117.379 E0.91245
G1 X85.421 Y118.05 E0.93554
G1 X85.169 Y118.675 E0.95795
G1 X84.832 Y119.272 E0.98075
G1 X84.411 Y119.833 E1.00408
G1 X83.942 Y120.317 E1.0265
G1 X83.413 Y120.74 E1.04902
G1 X82.827 Y121.096 E1.07183
G1 X82.184 Y121.379 E1.0952
G1 X81.544 Y121.569 E1.1174
G1 F2700 E-3.8826
G0 F6000 X88.707 Y139.54
G0 X88.731 Y139.691
G1 F2700 E1.1174
G1 F1200 X89.377 Y139.451 E1.14032
G1 X89.989 Y139.202 E1.1623
G1 X90.537 Y138.963 E1.18218
G1 X90.916 Y138.749 E1.19666
G1 X91.235 Y138.482 E1.21049
G1 X91.498 Y138.162 E1.22427
G1 X91.701 Y137.799 E1.2381
G1 X91.835 Y137.405 E1.25194
G1 X91.899 Y136.981 E1.26621
G1 X91.882 Y136.562 E1.28015
G1 X91.779 Y135.6 E1.31233
G1 X91.722 Y134.6 E1.34565
G1 X91.73 Y133.617 E1.37834
G1 X91.762 Y133.12 E1.39491
G1 X91.815 Y132.633 E1.4112
G1 X91.89 Y132.166 E1.42693
G1 X91.996 Y131.685 E1.44331
G1 X92.141 Y131.2 E1.46015
G1 X92.316 Y130.747 E1.4763
G1 X92.526 Y130.315 E1.49228
G1 X92.787 Y129.895 E1.50873
G1 X93.09 Y129.505 E1.52515
G1 X93.426 Y129.161 E1.54115
G1 X93.817 Y128.843 E1.55791
G1 X94.232 Y128.573 E1.57438
G1 X94.657 Y128.359 E1.5902
G1 X95.13 Y128.169 E1.60716
G1 X95.59 Y128.026 E1.62318
G1 X96.076 Y127.912 E1.63978
G1 X96.548 Y127.833 E1.6557
G1 X97.038 Y127.775 E1.67211
G1 X98.002 Y127.726 E1.70421
G1 X98.972 Y127.744 E1.73648
G1 X99.943 Y127.819 E1.76887
G1 X100.882 Y127.935 E1.80034
G1 X101.225 Y127.953 E1.81177
G1 X101.545 Y127.911 E1.8225
G1 X101.864 Y127.811 E1.83362
G1 X102.139 Y127.659 E1.84407
G1 X102.399 Y127.452 E1.85512
G1 X102.617 Y127.202 E1.86616
G1 X102.784 Y126.918 E1.87711
G1 X103.049 Y126.335 E1.89841
G1 X103.321 Y125.692 E1.92163
G1 X103.545 Y125.123 E1.94197
G1 X103.655 Y124.718 E1.95593
G1 X103.692 Y124.309 E1.96959
G1 X103.653 Y123.889 E1.98362
G1 X103.537 Y123.483 E1.99766
G1 X103.352 Y123.108 E2.01157
G1 X103.101 Y122.773 E2.02549
G1 X102.792 Y122.486 E2.03952
G1 X102.04 Y121.878 E2.07169
G1 X101.299 Y121.219 E2.10467
G1 X100.603 Y120.512 E2.13766
G1 X100.271 Y120.137 E2.15432
G1 X99.966 Y119.755 E2.17058
G1 X99.684 Y119.363 E2.18664
G1 X99.421 Y118.948 E2.20298
G1 X99.186 Y118.516 E2.21934
G1 X98.987 Y118.069 E2.23561
G1 X98.826 Y117.603 E2.25201
G1 X98.712 Y117.121 E2.26849
G1 X98.657 Y116.66 E2.28393
G1 X98.651 Y116.153 E2.30079
G1 X98.703 Y115.662 E2.31721
G1 X98.807 Y115.18 E2.33361
G1 X98.956 Y114.718 E2.34976
G1 X99.148 Y114.269 E2.366
G1 X99.38 Y113.829 E2.38255
G1 X99.635 Y113.419 E2.39861
G1 X99.919 Y113.014 E2.41506
G1 X100.226 Y112.628 E2.43146
G1 X100.87 Y111.911 E2.46352
G1 X101.57 Y111.24 E2.49577
G1 X102.31 Y110.605 E2.5282
G1 X103.055 Y110.024 E2.55962
G1 X103.309 Y109.795 E2.571
G1 X103.508 Y109.537 E2.58183
G1 X103.659 Y109.241 E2.59289
G1 X103.752 Y108.934 E2.60356
G1 X103.789 Y108.609 E2.61443
G1 X103.765 Y108.282 E2.62534
G1 X103.684 Y107.97 E2.63606
G1 X103.444 Y107.324 E2.65898
G1 X103.211 Y106.749 E2.67962
G1 X102.956 Y106.165 E2.70081
G1 X102.742 Y105.786 E2.71529
G1 X102.475 Y105.466 E2.72915
G1 X102.155 Y105.203 E2.74293
G1 X101.792 Y105 E2.75676
G1 X101.398 Y104.866 E2.7706
G1 X100.976 Y104.803 E2.78479
G1 X100.555 Y104.819 E2.7988
G1 X99.593 Y104.922 E2.83098
G1 X98.592 Y104.98 E2.86433
G1 X97.61 Y104.972 E2.897
G1 X97.113 Y104.94 E2.91356
G1 X96.626 Y104.887 E2.92985
G1 X96.161 Y104.811 E2.94552
G1 X95.684 Y104.707 E2.96176
G1 X95.193 Y104.56 E2.97881
G1 X94.738 Y104.385 E2.99502
G1 X94.314 Y104.18 E3.01069
G1 X93.888 Y103.914 E3.02739
G1 X93.498 Y103.611 E3.04382
G1 X93.152 Y103.273 E3.05991
G1 X92.836 Y102.884 E3.07657
G1 X92.566 Y102.469 E3.09304
G1 X92.352 Y102.044 E3.10887
G1 X92.162 Y101.571 E3.12582
G1 X92.019 Y101.111 E3.14184
G1 X91.905 Y100.625 E3.15845
G1 X91.826 Y100.153 E3.17436
G1 X91.768 Y99.672 E3.19048
G1 X91.719 Y98.7 E3.22285
G1 X91.737 Y97.729 E3.25515
G1 X91.812 Y96.759 E3.28751
G1 X91.928 Y95.82 E3.31898
G1 X91.946 Y95.475 E3.33047
G1 X91.904 Y95.156 E3.34117
G1 X91.804 Y94.837 E3.35229
G1 X91.652 Y94.562 E3.36274
G1 X91.445 Y94.302 E3.37379
G1 X91.197 Y94.085 E3.38475
G1 X90.911 Y93.917 E3.39578
G1 X90.328 Y93.652 E3.41708
G1 X89.723 Y93.396 E3.43893
G1 X89.115 Y93.156 E3.46067
G1 X88.711 Y93.046 E3.4746
G1 X88.304 Y93.009 E3.48819
G1 X87.882 Y93.049 E3.50229
G1 X87.476 Y93.164 E3.51633
G1 X87.105 Y93.348 E3.5301
G1 X86.766 Y93.601 E3.54417
G1 X86.48 Y93.91 E3.55817
G1 X85.872 Y94.66 E3.59029
G1 X85.214 Y95.401 E3.62325
G1 X84.505 Y96.098 E3.65631
G1 X84.131 Y96.43 E3.67295
G1 X83.749 Y96.734 E3.68919
G1 X83.357 Y97.016 E3.70525
G1 X82.953 Y97.273 E3.72117
G1 X82.511 Y97.514 E3.73792
G1 X82.08 Y97.707 E3.75362
G1 X81.605 Y97.873 E3.77036
G1 X81.124 Y97.987 E3.7868
G1 X80.644 Y98.044 E3.80288
G1 X80.147 Y98.05 E3.81941
G1 X79.663 Y98 E3.83559
G1 X79.173 Y97.894 E3.85227
G1 X78.709 Y97.744 E3.86849
G1 X78.262 Y97.553 E3.88465
G1 X77.83 Y97.327 E3.90087
G1 X77.411 Y97.065 E3.91731
G1 X77.006 Y96.782 E3.93374
G1 X76.62 Y96.475 E3.95014
G1 X75.903 Y95.831 E3.9822
G1 X75.232 Y95.13 E4.01447
G1 X74.598 Y94.391 E4.04686
G1 X74.017 Y93.646 E4.07828
G1 X73.788 Y93.393 E4.08963
G1 X73.531 Y93.193 E4.10046
G1 X73.238 Y93.044 E4.11139
G1 X72.927 Y92.949 E4.12221
G1 X72.604 Y92.912 E4.13302
G1 X72.275 Y92.936 E4.144
G1 X71.963 Y93.018 E4.15472
G1 X71.318 Y93.257 E4.1776
G1 X70.742 Y93.49 E4.19827
G1 X70.153 Y93.747 E4.21964
G1 X69.779 Y93.959 E4.23394
G1 X69.461 Y94.225 E4.24773
G1 X69.195 Y94.549 E4.26167
G1 X68.993 Y94.909 E4.2754
G1 X68.859 Y95.303 E4.28924
G1 X68.796 Y95.727 E4.3035
G1 X68.812 Y96.146 E4.31745
G1 X68.915 Y97.107 E4.34959
G1 X68.972 Y98.108 E4.38294
G1 X68.965 Y99.092 E4.41567
G1 X68.933 Y99.589 E4.43223
G1 X68.88 Y100.075 E4.4485
G1 X68.804 Y100.54 E4.46417
G1 X68.696 Y101.032 E4.48092
G1 X68.553 Y101.509 E4.49748
G1 X68.379 Y101.961 E4.51359
G1 X68.171 Y102.389 E4.52942
G1 X67.907 Y102.813 E4.54603
G1 X67.614 Y103.192 E4.56196
G1 X67.26 Y103.553 E4.57878
G1 X66.887 Y103.859 E4.59483
G1 X66.462 Y104.135 E4.61168
G1 X66.037 Y104.349 E4.62751
G1 X65.564 Y104.539 E4.64446
G1 X65.104 Y104.682 E4.66048
G1 X64.618 Y104.796 E4.67709
G1 X64.146 Y104.875 E4.69301
G1 X63.665 Y104.933 E4.70912
G1 X62.692 Y104.982 E4.74152
G1 X61.722 Y104.964 E4.77379
G1 X60.752 Y104.889 E4.80615
G1 X59.813 Y104.773 E4.83762
G1 X59.47 Y104.755 E4.84904
G1 X59.149 Y104.797 E4.85981
G1 X58.83 Y104.897 E4.87093
G1 X58.555 Y105.049 E4.88138
G1 X58.295 Y105.256 E4.89243
G1 X58.077 Y105.506 E4.90346
G1 X57.91 Y105.79 E4.91442
G1 X57.645 Y106.373 E4.93572
G1 X57.389 Y106.979 E4.9576
G1 X57.149 Y107.587 E4.97934
G1 X57.039 Y107.99 E4.99324
G1 X57.002 Y108.4 E5.00693
G1 X57.042 Y108.82 E5.02096
G1 X57.155 Y109.221 E5.03482
G1 X57.341 Y109.596 E5.04874
G1 X57.594 Y109.935 E5.06281
G1 X57.903 Y110.221 E5.07681
G1 X58.653 Y110.829 E5.10893
G1 X59.394 Y111.488 E5.14191
G1 X60.092 Y112.197 E5.175
G1 X60.423 Y112.57 E5.19159
G1 X60.727 Y112.952 E5.20782
G1 X61.009 Y113.345 E5.22391
G1 X61.266 Y113.748 E5.23981
G1 X61.507 Y114.19 E5.25655
G1 X61.705 Y114.633 E5.27269
G1 X61.868 Y115.106 E5.28933
G1 X61.983 Y115.597 E5.30611
G1 X62.036 Y116.043 E5.32104
G1 X62.043 Y116.544 E5.33771
G1 X61.991 Y117.047 E5.35453
G1 X61.892 Y117.51 E5.37028
G1 X61.738 Y117.99 E5.38704
G1 X61.546 Y118.439 E5.40328
G1 X61.315 Y118.879 E5.41981
G1 X61.059 Y119.29 E5.43592
G1 X60.776 Y119.694 E5.45232
G1 X60.469 Y120.08 E5.46873
G1 X59.825 Y120.797 E5.50078
G1 X59.124 Y121.468 E5.53306
G1 X58.384 Y122.103 E5.56549
G1 X57.639 Y122.684 E5.59691
G1 X57.386 Y122.914 E5.60828
G1 X57.186 Y123.171 E5.61912
G1 X57.035 Y123.467 E5.63017
G1 X56.942 Y123.774 E5.64084
G1 X56.905 Y124.1 E5.65175
G1 X56.929 Y124.426 E5.66262
G1 X57.011 Y124.738 E5.67335
G1 X57.251 Y125.386 E5.69633
G1 X57.483 Y125.959 E5.7169
G1 X57.738 Y126.543 E5.73809
G1 X57.953 Y126.923 E5.75261
G1 X58.217 Y127.24 E5.76633
G1 X58.54 Y127.505 E5.78023
G1 X58.902 Y127.708 E5.79403
G1 X59.296 Y127.842 E5.80787
G1 X59.718 Y127.906 E5.82207
G1 X60.139 Y127.889 E5.83608
G1 X61.101 Y127.786 E5.86826
G1 X62.102 Y127.729 E5.90161
G1 X63.085 Y127.737 E5.93431
G1 X63.582 Y127.769 E5.95087
G1 X64.068 Y127.822 E5.96713
G1 X64.534 Y127.897 E5.98283
G1 X65.025 Y128.005 E5.99955
G1 X65.502 Y128.148 E6.01611
G1 X65.956 Y128.324 E6.03231
G1 X66.396 Y128.539 E6.0486
G1 X66.806 Y128.794 E6.06466
G1 X67.192 Y129.092 E6.08088
G1 X67.534 Y129.427 E6.0968
G1 X67.85 Y129.812 E6.11336
G1 X68.128 Y130.239 E6.13031
G1 X68.342 Y130.664 E6.14614
G1 X68.532 Y131.137 E6.16309
G1 X68.675 Y131.596 E6.17908
G1 X68.79 Y132.084 E6.19576
G1 X68.868 Y132.554 E6.2116
G1 X68.926 Y133.043 E6.22798
G1 X68.976 Y134.008 E6.26012
G1 X68.957 Y134.979 E6.29242
G1 X68.882 Y135.95 E6.32481
G1 X68.766 Y136.889 E6.35628
G1 X68.748 Y137.233 E6.36774
G1 X68.79 Y137.552 E6.37844
G1 X68.891 Y137.871 E6.38957
G1 X69.043 Y138.146 E6.40002
G1 X69.249 Y138.406 E6.41105
G1 X69.497 Y138.623 E6.42201
G1 X69.779 Y138.789 E6.4329
G1 X70.366 Y139.056 E6.45435
G1 X70.972 Y139.313 E6.47624
G1 X71.579 Y139.552 E6.49794
G1 X71.983 Y139.662 E6.51186
G1 X72.391 Y139.699 E6.52549
G1 X72.813 Y139.66 E6.53959
G1 X73.218 Y139.544 E6.5536
G1 X73.59 Y139.361 E6.56739
G1 X73.924 Y139.115 E6.58118
G1 X74.216 Y138.8 E6.59547
G1 X74.822 Y138.048 E6.62759
G1 X75.481 Y137.307 E6.66057
G1 X76.19 Y136.61 E6.69364
G1 X76.563 Y136.279 E6.71023
G1 X76.945 Y135.974 E6.72649
G1 X77.338 Y135.692 E6.74257
G1 X77.753 Y135.428 E6.75893
G1 X78.183 Y135.194 E6.77522
G1 X78.615 Y135.001 E6.79095
G1 X79.099 Y134.833 E6.80799
G1 X79.59 Y134.718 E6.82477
G1 X80.047 Y134.664 E6.84007
G1 X80.55 Y134.659 E6.8568
G1 X81.026 Y134.707 E6.87271
G1 X81.521 Y134.814 E6.88956
G1 X81.985 Y134.964 E6.90578
G1 X82.432 Y135.155 E6.92194
G1 X82.872 Y135.387 E6.93849
G1 X83.284 Y135.643 E6.95462
G1 X83.687 Y135.926 E6.971
G1 X84.073 Y136.233 E6.9874
G1 X84.79 Y136.877 E7.01946
G1 X85.461 Y137.577 E7.05171
G1 X86.096 Y138.317 E7.08414
G1 X86.677 Y139.062 E7.11557
G1 X86.907 Y139.316 E7.12696
G1 X87.164 Y139.515 E7.13777
G1 X87.456 Y139.664 E7.14868
G1 X87.767 Y139.759 E7.15949
G1 X88.091 Y139.796 E7.17034
G1 X88.419 Y139.772 E7.18128
G1 X88.731 Y139.691 E7.192
G0 F6000 X88.099 Y139.434
;TYPE:SKIN
G1 F1200 X88.358 Y139.415 E7.20064
G1 X88.609 Y139.35 E7.20926
G1 X89.215 Y139.128 E7.23072
G1 X89.849 Y138.871 E7.25348
G1 X90.376 Y138.64 E7.27262
G1 X90.713 Y138.449 E7.2855
G1 X90.976 Y138.229 E7.2969
G1 X91.198 Y137.958 E7.30856
G1 X91.371 Y137.649 E7.32033
G1 X91.483 Y137.321 E7.33186
G1 X91.537 Y136.958 E7.34407
G1 X91.522 Y136.589 E7.35635
G1 X91.421 Y135.639 E7.38813
G1 X91.362 Y134.624 E7.42194
G1 X91.37 Y133.594 E7.4562
G1 X91.402 Y133.094 E7.47287
G1 X91.458 Y132.585 E7.4899
G1 X91.532 Y132.121 E7.50553
G1 X91.648 Y131.589 E7.52364
G1 X91.807 Y131.07 E7.54169
G1 X91.988 Y130.592 E7.55869
G1 X92.226 Y130.113 E7.57648
G1 X92.491 Y129.687 E7.59317
G1 X92.803 Y129.284 E7.61012
G1 X93.205 Y128.874 E7.62922
G1 X93.569 Y128.578 E7.64482
G1 X94.035 Y128.27 E7.6634
G1 X94.488 Y128.04 E7.6803
G1 X95.022 Y127.822 E7.69948
G1 X95.507 Y127.674 E7.71635
G1 X96.007 Y127.557 E7.73342
G1 X96.486 Y127.478 E7.74957
G1 X96.995 Y127.417 E7.76662
G1 X97.984 Y127.366 E7.79956
G1 X98.978 Y127.384 E7.83263
G1 X99.973 Y127.46 E7.86582
G1 X100.913 Y127.576 E7.89732
G1 X101.329 Y127.597 E7.91117
G1 X101.814 Y127.452 E7.92801
G1 X102.151 Y127.188 E7.94225
G1 X102.325 Y126.99 E7.95101
G1 X102.464 Y126.75 E7.96024
G1 X102.716 Y126.194 E7.98054
G1 X102.972 Y125.594 E8.00224
G1 X103.205 Y124.996 E8.02358
G1 X103.299 Y124.652 E8.03545
G1 X103.33 Y124.308 E8.04693
G1 X103.296 Y123.958 E8.05863
G1 X103.198 Y123.611 E8.07062
G1 X103.043 Y123.297 E8.08227
G1 X102.838 Y123.019 E8.09376
G1 X102.554 Y122.758 E8.10659
G1 X101.813 Y122.159 E8.13828
G1 X101.059 Y121.488 E8.17185
G1 X100.327 Y120.745 E8.20654
G1 X100 Y120.375 E8.22296
G1 X99.683 Y119.978 E8.23986
G1 X99.391 Y119.572 E8.25649
G1 X99.102 Y119.116 E8.27445
G1 X98.855 Y118.662 E8.29164
G1 X98.658 Y118.217 E8.30783
G1 X98.473 Y117.683 E8.32662
G1 X98.357 Y117.193 E8.34337
G1 X98.299 Y116.704 E8.35975
G1 X98.291 Y116.131 E8.37881
G1 X98.348 Y115.596 E8.3967
G1 X98.455 Y115.097 E8.41368
G1 X98.625 Y114.575 E8.43194
G1 X98.816 Y114.127 E8.44813
G1 X99.06 Y113.661 E8.46563
G1 X99.328 Y113.229 E8.48254
G1 X99.631 Y112.796 E8.50012
G1 X99.943 Y112.405 E8.51675
G1 X100.604 Y111.667 E8.54971
G1 X101.32 Y110.981 E8.58269
G1 X102.075 Y110.332 E8.6158
G1 X102.823 Y109.748 E8.64736
G1 X103.041 Y109.55 E8.65716
G1 X103.203 Y109.34 E8.66598
G1 X103.323 Y109.103 E8.67482
G1 X103.397 Y108.86 E8.68326
G1 X103.427 Y108.599 E8.692
G1 X103.418 Y108.47 E8.6963
G1 X103.408 Y108.342 E8.70057
G1 X103.343 Y108.092 E8.70916
G1 X103.097 Y107.425 E8.73281
G1 X102.879 Y106.887 E8.75212
G1 X102.633 Y106.326 E8.77249
G1 X102.442 Y105.989 E8.78537
G1 X102.22 Y105.723 E8.7969
G1 X101.949 Y105.502 E8.80853
G1 X101.643 Y105.33 E8.8202
G1 X101.314 Y105.219 E8.83175
G1 X100.952 Y105.165 E8.84393
G1 X100.579 Y105.179 E8.85634
G1 X99.63 Y105.28 E8.88808
G1 X98.588 Y105.34 E8.9228
G1 X97.586 Y105.332 E8.95613
G1 X97.088 Y105.3 E8.97272
G1 X96.585 Y105.245 E8.98955
G1 X96.117 Y105.169 E9.00532
G1 X95.579 Y105.053 E9.02363
G1 X95.09 Y104.906 E9.04061
G1 X94.58 Y104.711 E9.05877
G1 X94.139 Y104.494 E9.07512
G1 X93.684 Y104.211 E9.09294
G1 X93.254 Y103.878 E9.11103
G1 X92.894 Y103.524 E9.12782
G1 X92.551 Y103.107 E9.14578
G1 X92.253 Y102.649 E9.16395
G1 X92.03 Y102.207 E9.18042
G1 X91.822 Y101.693 E9.19886
G1 X91.674 Y101.22 E9.21535
G1 X91.55 Y100.694 E9.23332
G1 X91.468 Y100.197 E9.25007
G1 X91.41 Y99.707 E9.26649
G1 X91.359 Y98.722 E9.29929
